swiss/communes/0173.svg

<?xml version="1.0" encoding="UTF-8" standalone="no"?>
<!-- Created with Inkscape (http://www.inkscape.org/) -->
<svg
   xmlns:svg="http://www.w3.org/2000/svg"
   xmlns="http://www.w3.org/2000/svg"
   version="1.0"
   width="224.05829"
   height="262.44946"
   id="svg2780">
  <defs
     id="defs2782" />
  <g
     transform="translate(-26.012787,-784.95711)"
     id="layer1">
    <path
       d="M 27.012787,785.95711 L 31.050207,955.55208 C 33.93407,1076.6914 242.14979,1076.6914 245.03367,955.55208 L 249.07108,785.95711 L 27.012787,785.95711 z "
       style="fill:#ffffff;fill-opacity:1;fill-rule:evenodd;stroke:#000000;stroke-width:2;stroke-linecap:butt;stroke-miterlimit:4;stroke-dashoffset:0;stroke-opacity:1"
       id="path3282" />
    <path
       d="M 126,125 L 233.125,125 L 236.125,-0.65625 L 126,125 z M 126,125 L 17.0625,125 L 18.125,168.9375 C 18.701339,193.14715 27.487211,212.49818 41.1875,227.03125 L 126,125 z "
       transform="translate(12.938287,786.61413)"
       style="fill:#000000;fill-opacity:1;stroke:none"
       id="path5190" />
    <path
       d="M 14.0625,-0.65625 L 126,125 L 126,-0.65625 L 14.0625,-0.65625 z M 126,125 L 126,259.78125 C 159.92708,259.55934 193.73536,246.81786 213.78125,221.5625 L 126,125 z "
       transform="translate(12.938287,786.61413)"
       style="fill:#000000;fill-opacity:1;stroke:none"
       id="path11229" />
    <path
       d="M 16.0625,83.34375 L 18.0625,166.5625 L 232.15625,166.5625 L 234.125,83.34375 L 16.0625,83.34375 z "
       transform="translate(12.938287,786.61413)"
       style="opacity:1;fill:#efd905;fill-opacity:1;fill-rule:evenodd;stroke:#000000;stroke-width:1.99842525;stroke-linecap:round;stroke-linejoin:miter;stroke-miterlimit:4;stroke-dasharray:none;stroke-dashoffset:0;stroke-opacity:1"
       id="rect4204" />
    <path
       d="M 122.60035,898.36417 C 129.94195,898.05658 130.8647,894.67823 132.53793,893.60173 C 134.29831,892.46916 137.82982,891.94213 137.68917,890.30335 C 137.54904,888.6705 135.42114,890.93535 132.32166,890.00768 C 129.27931,889.0971 128.55416,886.6901 128.4221,885.47974 C 128.29004,884.26938 130.93271,885.61238 131.88739,885.62037 C 132.6348,885.62662 133.13002,885.57938 133.26706,884.58465 C 127.5978,884.16044 123.14099,885.91227 121.01387,884.97634 C 118.93881,884.06332 116.74512,880.79853 119.18952,880.7572 C 121.57162,880.71587 120.85203,882.88608 124.40364,883.02289 C 127.95231,883.1596 131.87941,882.75327 133.20924,882.81407 C 133.12049,880.95058 130.34332,881.31294 125.5871,881.40623 C 127.24746,876.14198 131.63824,872.19407 137.92738,872.45207 C 144.2102,872.70982 148.27978,875.23865 148.34656,882.58026 C 148.41334,890.04647 144.38489,891.61745 144.47268,892.97078 C 144.56449,894.38615 147.8843,897.95334 154.79,898.86254 C 161.70348,899.77276 164.27977,904.22008 167.62315,902.60036 C 170.91919,901.00358 171.85934,896.86906 168.6199,891.8853 C 165.43717,886.98879 169.24288,878.42915 180.70551,878.42915 C 192.16814,878.42915 221.42705,878.17997 224.61452,878.05538 C 227.67759,877.93564 230.04467,873.33503 232.41196,874.94764 C 234.69488,876.50278 234.12868,880.40385 231.16602,884.78344 C 228.30036,889.01964 196.65909,887.7482 193.28949,887.02613 C 189.80086,886.27856 188.67951,889.7672 192.16814,890.51476 C 195.63329,891.25729 226.43145,894.1593 228.92333,892.91336 C 231.3674,891.69132 232.66115,889.70524 234.15627,891.54283 C 235.70223,893.44289 234.03442,901.12344 223.31661,902.72496 C 212.47694,904.34468 193.87852,899.47683 191.29599,898.73795 C 188.68307,897.99038 187.68988,899.98389 189.30604,900.73146 C 190.9222,901.47902 208.73912,908.02696 212.35235,909.45302 C 215.85802,910.83663 218.2714,910.48842 220.9914,910.59966 C 223.70916,910.7108 227.40692,907.07218 229.79549,909.88234 C 232.24609,912.76549 225.27988,919.4206 215.84098,919.66972 C 206.39961,919.9189 188.99878,908.88452 187.06335,907.21034 C 185.19089,905.59062 182.94464,906.96115 184.69251,908.45627 C 186.51337,910.01383 203.257,925.40103 209.36209,925.40104 C 215.59179,925.40104 215.9378,930.63398 210.60803,931.63073 C 205.27826,932.62748 196.64996,930.75858 192.54192,926.77157 C 188.43388,922.78456 178.52719,913.43847 177.46607,912.19409 C 176.34473,910.87909 174.35122,911.8203 175.59716,913.56462 C 176.90271,915.39239 183.69576,927.06561 185.56467,927.51914 C 187.55145,928.00126 190.17464,931.50614 184.9417,931.50614 C 179.70876,931.50614 174.33947,926.40607 172.33707,921.91241 C 170.28845,917.31503 170.07658,916.6632 168.5081,914.37688 C 166.88201,912.00658 165.13536,912.23864 165.25588,915.9319 C 165.38046,919.74962 167.54969,922.03826 169.11765,924.16277 C 170.64055,926.22622 168.39472,929.09007 164.38371,926.89616 C 160.31911,924.67294 158.94038,920.13515 157.70658,917.14666 C 156.49013,914.2002 158.0315,910.50531 154.29161,910.50531 C 150.5538,910.50531 144.36895,911.57112 151.42595,918.29919 C 158.41795,924.96529 160.89509,927.76832 160.89509,929.51263 C 160.89509,931.25694 171.61016,936.11612 173.47906,936.98827 C 175.24629,937.81298 177.60578,938.90878 179.24687,936.38668 C 180.86227,933.90407 187.15501,931.49103 188.78629,933.54499 C 190.37503,935.54539 190.37481,935.46292 187.72185,935.5359 C 185.15699,935.60888 181.93277,938.90878 185.31548,938.73258 C 188.78605,938.5518 193.9616,941.34214 194.0798,943.78932 C 194.19814,946.23916 191.50242,948.48114 191.26835,945.96162 C 191.03338,943.43248 179.73098,940.25428 182.32523,942.7347 C 184.96307,945.25681 187.07491,944.97739 187.07491,949.21358 C 187.07491,953.44977 186.17084,951.91446 182.19178,947.43904 C 178.17406,942.92013 176.0653,941.16805 172.0783,945.79867 C 168.0913,950.42929 171.1675,953.65808 167.78683,950.47723 C 164.4498,947.33744 170.18874,944.05622 170.89355,942.76493 C 171.61953,941.43486 172.60691,939.97852 169.11828,938.98177 C 165.62965,937.98502 160.75955,934.13283 159.12053,934.5115 C 157.46432,934.89415 154.91458,933.25045 151.42595,930.01101 C 147.93732,926.77157 143.20275,922.78457 141.95682,928.76507 C 140.71088,934.74558 142.95358,938.46827 149.20097,938.04288 C 155.44301,937.61787 157.41059,937.31627 159.7096,941.62222 C 162.02787,945.96422 160.3967,947.45416 158.65239,945.70984 C 156.90807,943.96552 154.80867,944.46372 154.07891,946.07736 C 153.31623,947.7638 148.89133,945.70984 147.43895,944.4639 C 145.97631,943.20916 142.86554,940.79601 142.79248,944.15685 C 142.71949,947.51461 142.5584,950.22545 138.50828,950.22545 C 134.45816,950.22545 134.29707,947.51461 134.22408,944.15685 C 134.15102,940.79601 131.04025,943.20916 129.57761,944.4639 C 128.12523,945.70984 123.70033,947.7638 122.93765,946.07736 C 122.20789,944.46372 120.10849,943.96552 118.36417,945.70984 C 116.61986,947.45416 114.98869,945.96422 117.30696,941.62222 C 119.60597,937.31627 121.57355,937.61787 127.81559,938.04288 C 134.06298,938.46827 136.30568,934.74558 135.05974,928.76507 C 133.81381,922.78457 129.07924,926.77157 125.59061,930.01101 C 122.10198,933.25045 119.55224,934.89415 117.89603,934.5115 C 116.25701,934.13283 111.38691,937.98502 107.89828,938.98177 C 104.40965,939.97852 105.39703,941.43486 106.12301,942.76493 C 106.82782,944.05622 112.56676,947.33744 109.22973,950.47723 C 105.84906,953.65808 108.92526,950.42929 104.93826,945.79867 C 100.95126,941.16805 98.842501,942.92013 94.824782,947.43904 C 90.845717,951.91446 89.941652,953.44977 89.941652,949.21358 C 89.941652,944.97739 92.053487,945.25681 94.691334,942.7347 C 97.285583,940.25428 85.98318,943.43248 85.748214,945.96162 C 85.514143,948.48114 82.818424,946.23916 82.936757,943.78932 C 83.054962,941.34214 88.230508,938.5518 91.701081,938.73258 C 95.083788,938.90878 91.859574,935.60888 89.294711,935.5359 C 86.641748,935.46292 86.641535,935.54539 88.230272,933.54499 C 89.861551,931.49103 96.154295,933.90407 97.769687,936.38668 C 99.410784,938.90878 101.77027,937.81298 103.5375,936.98827 C 105.4064,936.11612 116.12147,931.25694 116.12147,929.51263 C 116.12147,927.76832 118.59861,924.96529 125.59061,918.29919 C 132.64761,911.57112 126.46276,910.50531 122.72495,910.50531 C 118.98506,910.50531 120.52643,914.2002 119.30998,917.14666 C 118.07618,920.13515 116.69745,924.67294 112.63285,926.89616 C 108.62184,929.09007 106.37601,926.22622 107.89891,924.16277 C 109.46687,922.03826 111.6361,919.74962 111.76068,915.9319 C 111.8812,912.23864 110.13455,912.00658 108.50846,914.37688 C 106.93998,916.6632 106.72811,917.31503 104.67949,921.91241 C 102.67709,926.40607 97.307805,931.50614 92.074863,931.50614 C 86.841921,931.50614 89.465116,928.00126 91.451893,927.51914 C 93.320801,927.06561 100.11385,915.39239 101.4194,913.56462 C 102.66534,911.8203 100.67183,910.87909 99.550494,912.19409 C 98.489371,913.43847 88.582677,922.78456 84.474637,926.77157 C 80.366597,930.75858 71.738298,932.62748 66.408527,931.63073 C 61.078756,930.63398 61.424772,925.40104 67.654466,925.40104 C 73.759565,925.40103 90.50319,910.01383 92.32405,908.45627 C 94.071922,906.96115 91.825675,905.59062 89.953209,907.21034 C 88.017784,908.88452 70.616953,919.9189 61.175585,919.66972 C 51.736681,919.4206 44.77047,912.76549 47.221073,909.88234 C 49.609636,907.07218 53.307398,910.7108 56.025158,910.59966 C 58.745157,910.48842 61.158536,910.83663 64.664214,909.45302 C 68.277436,908.02696 86.094357,901.47902 87.71052,900.73146 C 89.326683,899.98389 88.333489,897.99038 85.720575,898.73795 C 83.138042,899.47683 64.53962,904.34468 53.699954,902.72496 C 42.982145,901.12344 41.314331,893.44289 42.860287,891.54283 C 44.355413,889.70524 45.649158,891.69132 48.09323,892.91336 C 50.585107,894.1593 81.383269,891.25729 84.848419,890.51476 C 88.337047,889.7672 87.215702,886.27856 83.727074,887.02613 C 80.357472,887.7482 48.716199,889.01964 45.85054,884.78344 C 42.887882,880.40385 42.321685,876.50278 44.604602,874.94764 C 46.971886,873.33503 49.338975,877.93564 52.402043,878.05538 C 55.589511,878.17997 84.848421,878.42915 96.311054,878.42915 C 107.77368,878.42915 111.57939,886.98879 108.39666,891.8853 C 105.15722,896.86906 106.09737,901.00358 109.39341,902.60036 C 112.73679,904.22008 115.13415,898.67175 122.60035,898.36417 z M 137.55162,877.83734 C 137.55162,878.64546 136.72182,878.92754 135.77616,878.92754 C 134.83049,878.92754 134.12529,878.64546 134.12529,877.83734 C 134.12529,877.02922 134.83049,876.68484 135.77616,876.68484 C 136.72182,876.68484 137.55162,877.02922 137.55162,877.83734 z "
       style="fill:#000000;fill-opacity:1;fill-rule:evenodd;stroke:none;stroke-width:1px;stroke-linecap:butt;stroke-linejoin:miter;stroke-opacity:1"
       id="path3223" />
  </g>
</svg>

<svg xmlns="http://www.w3.org/2000/svg" version="1.0" width="224.058" height="262.449"><path d="m27.013 785.957 4.037 169.595c2.884 121.14 211.1 121.14 213.984 0l4.037-169.595H27.013z" style="fill:#fff;fill-opacity:1;fill-rule:evenodd;stroke:#000;stroke-width:2;stroke-linecap:butt;stroke-miterlimit:4;stroke-dashoffset:0;stroke-opacity:1" transform="translate(-26.013 -784.957)"/><path d="M126 125h107.125l3-125.656L126 125zm0 0H17.062l1.063 43.938c.576 24.21 9.362 43.56 23.063 58.093L126 125zM14.063-.656 126 125V-.656H14.062zM126 125v134.781c33.927-.222 67.735-12.963 87.781-38.219L126 125z" transform="translate(-13.074 1.657)" style="fill:#000;fill-opacity:1;stroke:none"/><path d="m16.063 83.344 2 83.219h214.093l1.969-83.22H16.062z" transform="translate(-13.074 1.657)" style="opacity:1;fill:#efd905;fill-opacity:1;fill-rule:evenodd;stroke:#000;stroke-width:1.99842525;stroke-linecap:round;stroke-linejoin:miter;stroke-miterlimit:4;stroke-dasharray:none;stroke-dashoffset:0;stroke-opacity:1"/><path d="M122.6 898.364c7.342-.307 8.265-3.686 9.938-4.762 1.76-1.133 5.292-1.66 5.151-3.299-.14-1.633-2.268.632-5.367-.295-3.043-.91-3.768-3.318-3.9-4.528-.132-1.21 2.51.132 3.465.14.748.007 1.243-.04 1.38-1.035-5.67-.425-10.126 1.327-12.253.391-2.075-.913-4.269-4.177-1.824-4.219 2.382-.041 1.662 2.13 5.214 2.266 3.548.137 7.475-.27 8.805-.209-.089-1.863-2.866-1.501-7.622-1.408 1.66-5.264 6.051-9.212 12.34-8.954 6.283.258 10.353 2.787 10.42 10.128.066 7.466-3.962 9.037-3.874 10.39.091 1.416 3.411 4.983 10.317 5.893 6.913.91 9.49 5.357 12.833 3.737 3.296-1.596 4.236-5.73.997-10.715-3.183-4.896.623-13.456 12.086-13.456 11.462 0 40.721-.249 43.909-.374 3.063-.12 5.43-4.72 7.797-3.107 2.283 1.555 1.717 5.456-1.246 9.835-2.866 4.237-34.507 2.965-37.877 2.243-3.488-.747-4.61 2.741-1.12 3.489 3.464.742 34.262 3.644 36.754 2.398 2.444-1.222 3.738-3.208 5.233-1.37 1.546 1.9-.122 9.58-10.84 11.182-10.84 1.62-29.437-3.248-32.02-3.987-2.613-.748-3.606 1.246-1.99 1.993 1.616.748 19.433 7.296 23.046 8.722 3.506 1.384 5.92 1.035 8.64 1.147 2.717.11 6.415-3.528 8.803-.718 2.451 2.883-4.515 9.539-13.954 9.788-9.441.249-26.842-10.785-28.778-12.46-1.872-1.62-4.118-.249-2.37 1.246 1.82 1.558 18.564 16.945 24.67 16.945 6.229 0 6.575 5.233 1.245 6.23-5.33.996-13.958-.872-18.066-4.86-4.108-3.986-14.015-13.333-15.076-14.577-1.121-1.315-3.115-.374-1.869 1.37 1.306 1.828 8.099 13.502 9.968 13.955 1.986.482 4.61 3.987-.623 3.987-5.233 0-10.603-5.1-12.605-9.594-2.049-4.597-2.26-5.249-3.829-7.535-1.626-2.37-3.373-2.138-3.252 1.555.124 3.818 2.294 6.106 3.862 8.23 1.523 2.064-.723 4.928-4.734 2.734-4.065-2.223-5.444-6.76-6.677-9.75-1.217-2.946.325-6.64-3.415-6.64-3.738 0-9.923 1.065-2.866 7.793 6.992 6.666 9.47 9.47 9.47 11.214 0 1.744 10.714 6.603 12.583 7.475 1.767.825 4.127 1.92 5.768-.601 1.615-2.483 7.908-4.896 9.54-2.842 1.588 2 1.588 1.918-1.065 1.99-2.565.074-5.79 3.374-2.407 3.198 3.471-.181 8.647 2.61 8.765 5.056.118 2.45-2.578 4.692-2.812 2.173-.235-2.53-11.537-5.708-8.943-3.227 2.638 2.522 4.75 2.242 4.75 6.479 0 4.236-.904 2.7-4.883-1.775-4.018-4.519-6.127-6.27-10.114-1.64-3.987 4.63-.91 7.86-4.291 4.678-3.337-3.14 2.402-6.42 3.107-7.712.726-1.33 1.713-2.786-1.776-3.783-3.488-.997-8.358-4.85-9.997-4.47-1.657.382-4.206-1.262-7.695-4.501-3.489-3.24-8.223-7.226-9.47-1.246-1.245 5.98.998 9.703 7.245 9.278 6.242-.425 8.21-.727 10.509 3.58 2.318 4.341.687 5.831-1.058 4.087-1.744-1.744-3.843-1.246-4.573.367-.763 1.687-5.188-.367-6.64-1.613-1.463-1.255-4.573-3.668-4.647-.307-.073 3.358-.234 6.068-4.284 6.068s-4.21-2.71-4.284-6.068c-.073-3.361-3.184-.948-4.646.307-1.453 1.246-5.878 3.3-6.64 1.613-.73-1.613-2.83-2.111-4.574-.367-1.744 1.744-3.375.254-1.057-4.088 2.299-4.306 4.267-4.004 10.509-3.58 6.247.426 8.49-3.296 7.244-9.277-1.246-5.98-5.98-1.993-9.47 1.246-3.488 3.24-6.038 4.883-7.694 4.5-1.639-.378-6.51 3.474-9.998 4.47-3.488.998-2.501 2.454-1.775 3.784.705 1.291 6.444 4.572 3.107 7.712-3.38 3.181-.305-.048-4.292-4.678-3.987-4.63-6.095-2.879-10.113 1.64-3.98 4.475-4.883 6.01-4.883 1.775 0-4.237 2.111-3.957 4.75-6.48 2.594-2.48-8.709.698-8.944 3.228-.234 2.52-2.93.277-2.811-2.173.118-2.447 5.294-5.237 8.764-5.056 3.383.176.159-3.124-2.406-3.197-2.653-.073-2.653.01-1.065-1.991 1.632-2.054 7.924.36 9.54 2.842 1.64 2.522 4 1.426 5.767.601 1.87-.872 12.584-5.731 12.584-7.475 0-1.745 2.478-4.548 9.47-11.214 7.057-6.728.872-7.794-2.866-7.794-3.74 0-2.199 3.695-3.415 6.642-1.234 2.988-2.613 7.526-6.677 9.75-4.011 2.193-6.257-.67-4.734-2.734 1.568-2.125 3.737-4.413 3.862-8.231.12-3.693-1.626-3.925-3.253-1.555-1.568 2.286-1.78 2.938-3.829 7.535-2.002 4.494-7.371 9.594-12.604 9.594-5.233 0-2.61-3.505-.623-3.987 1.869-.453 8.662-12.127 9.967-13.954 1.246-1.745-.747-2.686-1.869-1.37-1.06 1.243-10.967 10.59-15.075 14.577-4.108 3.987-12.737 5.855-18.066 4.859-5.33-.997-4.984-6.23 1.245-6.23 6.106 0 22.85-15.387 24.67-16.945 1.748-1.495-.498-2.865-2.37-1.246-1.936 1.675-19.337 12.709-28.778 12.46-9.44-.25-16.406-6.905-13.955-9.788 2.389-2.81 6.086.829 8.804.718 2.72-.112 5.134.237 8.64-1.147 3.612-1.426 21.43-7.974 23.046-8.722 1.616-.747.622-2.74-1.99-1.993-2.583.739-21.181 5.607-32.021 3.987-10.718-1.602-12.386-9.282-10.84-11.182 1.495-1.838 2.79.148 5.233 1.37 2.492 1.246 33.29-1.656 36.755-2.398 3.489-.748 2.368-4.236-1.12-3.489-3.37.722-35.012 1.994-37.877-2.243-2.963-4.38-3.53-8.28-1.246-9.835 2.367-1.613 4.734 2.988 7.797 3.107 3.188.125 32.446.374 43.91.374 11.462 0 15.267 8.56 12.085 13.456-3.24 4.984-2.3 9.119.996 10.715 3.344 1.62 5.741-3.928 13.207-4.236zm14.952-20.527c0 .808-.83 1.09-1.776 1.09-.946 0-1.65-.282-1.65-1.09s.704-1.152 1.65-1.152 1.776.344 1.776 1.152z" style="fill:#000;fill-opacity:1;fill-rule:evenodd;stroke:none;stroke-width:1px;stroke-linecap:butt;stroke-linejoin:miter;stroke-opacity:1" transform="translate(-26.013 -784.957)"/></svg>
